X:1
T:Title
%%score { ( 1 4 ) | ( 2 3 ) }
L:1/8
Q:1/4=100
M:4/4
K:D
V:1 treble nm="Grand Piano"
V:4 treble 
V:2 bass 
V:3 bass 
V:1
 [FA]3 [FA] [Fd]2 .[=Fc]2 | [A,EA]2 EF [G,DG]2 [A,DF]2 | [DB]3 [DB] .[CEc]2 [Ec]2 | %3
w: Joseph~Menthal * * *|||
 [Dd]2 [DB]2 A4 | A3 A A2 GF | A2 GA B2 A2 | E3 E F2 F2 | ^G2 G2 z4 | D3 E F2 GA | %9
w: ||||||
 [B,DB]2 [DB]2 [DA]4 | [DB]2 [A,DA]2 [B,DE]2 [B,DG]2 |[M:8/4] .[A,DF]3[K:bass] [G,CE] [F,D]4 z8 | %12
w: |||
[M:4/4][K:treble] [B,DG]8 | [A,DF]8 |] %14
w: ||
V:2
 [D,A,]3 [D,A,] [D,A,]2 z[K:treble] B | z2 [=C,A,]2 z4 | z2 EG,, z B, [G,,A,]2 | %3
 [F,,A,]2 [G,,G,]2 [D,F,D]4 | z4 z2 .B,2 | z2 [D,D]2 z4 | [E,A,C]3 [E,A,C] [E,A,D]2 [E,A,D]2 | %7
 .[E,B,D]2 .[E,B,E]2 [A,,A,]4 | [D,F,]3 [D,G,D] [D,A,D]2 B,=C | G,,2 [B,,G,]2 [D,F,]4 | %10
 [G,,G,]2 F,,2 G,,2 G,,2 |[M:8/4] z2 CA,, D,4 z8 |[M:4/4] G,,8 | D,8 |] %14
V:3
 z4 z2 [D,^G,]2[K:treble] | C,2 z D B,,2 A,,2 | G,,4 G,,2 z2 | x8 | %4
 [D,F,D]3 [D,F,D] [D,F,D]2 [D,D]-[D,A,D] | [D,F,D]2 E,F, [D,G,D]2 [D,F,D]2 | x8 | x8 | %8
 z4 z2 [D,D]2 | x8 | x8 |[M:8/4] A,,4 z4 z8 |[M:4/4] x8 | x8 |] %14
V:4
 x8 | x8 | B,2 z2 z4 | x8 | x8 | x8 | x8 | z F z D [CA]4 | x8 | x8 | x8 |[M:8/4] x3[K:bass] x13 | %12
[M:4/4][K:treble] x8 | x8 |] %14

